svgs/shopee.svg

<svg width="192" height="192" viewBox="0 0 192 192" fill="none" xmlns="http://www.w3.org/2000/svg">
<path d="M29.0043 157.064L34.991 156.665L29.0043 157.064ZM22 52V46C20.3394 46 18.753 46.6882 17.6185 47.9009C16.484 49.1136 15.9028 50.7422 16.0133 52.3991L22 52ZM162.996 157.064L157.009 156.665L157.009 156.665L162.996 157.064ZM170 52L175.987 52.3991C176.097 50.7422 175.516 49.1136 174.381 47.9009C173.247 46.6882 171.661 46 170 46V52ZM34.991 156.665L27.9867 51.6009L16.0133 52.3991L23.0176 157.463L34.991 156.665ZM168.982 157.463L175.987 52.3991L164.013 51.6009L157.009 156.665L168.982 157.463ZM157.009 156.665C156.659 161.918 152.296 166 147.031 166V178C158.613 178 168.212 169.02 168.982 157.463L157.009 156.665ZM23.0176 157.463C23.788 169.02 33.3866 178 44.9688 178V166C39.7042 166 35.3412 161.918 34.991 156.665L23.0176 157.463ZM74 48C74 35.8497 83.8497 26 96 26V14C77.2223 14 62 29.2223 62 48H74ZM96 26C108.15 26 118 35.8497 118 48H130C130 29.2223 114.778 14 96 14V26ZM22 58H170V46H22V58ZM44.9688 178H147.031V166H44.9688V178Z" fill="black"/>
<path d="M114 84H88C80.268 84 74 90.268 74 98V98C74 105.732 80.268 112 88 112H92" stroke="black" stroke-width="12" stroke-linecap="round"/>
<path d="M90 112H104C111.732 112 118 118.268 118 126V126C118 133.732 111.732 140 104 140H78" stroke="black" stroke-width="12" stroke-linecap="round"/>
</svg>

<svg width="192" height="192" viewBox="0 0 192 192" fill="none" xmlns="http://www.w3.org/2000/svg"><path d="m29.004 157.064 5.987-.399-5.987.399ZM22 52v-6a6 6 0 0 0-5.987 6.4L22 52Zm140.996 105.064-5.987-.399 5.987.399ZM170 52l5.987.4A6 6 0 0 0 170 46v6ZM34.991 156.665 27.987 51.601l-11.974.798 7.005 105.064 11.973-.798Zm133.991.798 7.005-105.064-11.974-.798-7.004 105.064 11.973.798Zm-11.973-.798a10 10 0 0 1-9.978 9.335v12c11.582 0 21.181-8.98 21.951-20.537l-11.973-.798Zm-133.991.798C23.788 169.02 33.387 178 44.968 178v-12a10 10 0 0 1-9.977-9.335l-11.973.798ZM74 48c0-12.15 9.85-22 22-22V14c-18.778 0-34 15.222-34 34h12Zm22-22c12.15 0 22 9.85 22 22h12c0-18.778-15.222-34-34-34v12ZM22 58h148V46H22v12Zm22.969 120H147.03v-12H44.969v12Z" fill="#000"/><path d="M114 84H88c-7.732 0-14 6.268-14 14v0c0 7.732 6.268 14 14 14h4M90 112h14c7.732 0 14 6.268 14 14v0c0 7.732-6.268 14-14 14H78" stroke="#000" stroke-width="12" stroke-linecap="round"/></svg>
